X: 26
T: SCOTTISH
M: 4/4
L: 1/8
Q:1/4=80
K:G 
|:DBB3/2A/2 AGD2|D/2E/2F/2G/2D/2E/2F/2G/2 A/2G/2A/2B/2AG|DBB3/2A/2 AGD2|
D/2E/2F/2G/2D/2E/2F/2G/2 A/2G/2A/2B/2G2:|!
|:dde3/2d/2 dcB2|e/2c/2c/2A/2d/2B/2B/2G/2 c/2A/2A/2F/2AG|dde3/2d/2 dcB2|
e/2c/2c/2A/2d/2B/2B/2G/2 c/2A/2A/2F/2G2:|
